packages/calcite-ui-icons/icons/parcel-parameter-24.svg

<?xml version="1.0" encoding="UTF-8"?><svg id="icons" xmlns="http://www.w3.org/2000/svg" viewBox="0 0 24 24"><path d="M8.04425,17c-.02625.35065-.04425.69073-.04425,1h-4v1H1v-3h1V4h-1V1h3v1h12v-1h3v3h-1v5h1v3h-2.59277l-1,1h-1.41406l2.00684-2.00684v-1.99316h1v-5h-1v-1H4v1h-1v12h1v1h4.04425ZM9,9v2h2v-2h-2ZM17.15656,18l2.85638-4h-1.31311l-2.19983,3.08057-2.19983-3.08057h-1.31311l2.85638,4-2.85638,4h1.31311l2.19983-3.08063,2.19983,3.08063h1.31311l-2.85638-4ZM21.45569,12c.96393,1.37097,1.54431,4.10852,1.54431,6s-.58038,4.62903-1.54431,6h1.19147c.85339-1.43121,1.30286-4.15094,1.30286-6s-.44946-4.56879-1.30286-6h-1.19147ZM10,18c0-1.89148.58038-4.62903,1.54431-6h-1.19147c-.85339,1.43121-1.35284,4.15094-1.35284,6s.49945,4.56879,1.35284,6h1.19147c-.96393-1.37097-1.54431-4.10852-1.54431-6Z"/><rect width="24" height="24" style="fill:none;"/></svg>

<svg xmlns="http://www.w3.org/2000/svg" viewBox="0 0 24 24"><path d="M8.044 17c-.026.35-.044.69-.044 1H4v1H1v-3h1V4H1V1h3v1h12V1h3v3h-1v5h1v3h-2.593l-1 1h-1.414L16 10.993V9h1V4h-1V3H4v1H3v12h1v1h4.044zM9 9v2h2V9H9zm8.157 9l2.856-4H18.7l-2.2 3.08L14.3 14h-1.313l2.856 4-2.856 4H14.3l2.2-3.08L18.7 22h1.313l-2.856-4zm4.299-6C22.42 13.371 23 16.109 23 18s-.58 4.629-1.544 6h1.191c.854-1.431 1.303-4.15 1.303-6s-.45-4.569-1.303-6h-1.191zM10 18c0-1.891.58-4.629 1.544-6h-1.191C9.499 13.431 9 16.15 9 18s.5 4.569 1.353 6h1.191C10.58 22.629 10 19.891 10 18z"/><path fill="none" d="M0 0h24v24H0z"/></svg>
